public/images/icons/icon_telegram.svg

<svg xmlns="http://www.w3.org/2000/svg" width="2048" height="2048" style="shape-rendering:geometricPrecision;text-rendering:geometricPrecision;image-rendering:optimizeQuality;fill-rule:evenodd;clip-rule:evenodd"><path fill="#25a8ec" d="M978.5-.5h91c148.69 7.007 289.36 44.34 422 112-311.67 1.333-623.333 1.333-935 0q199.09-101.032 422-112" style="opacity:1"/><path fill="#25a8e7" d="M556.5 111.5c311.667 1.333 623.33 1.333 935 0q227.97 117.94 375 329l-1687 2q148.026-212.053 377-331" style="opacity:1"/><path fill="#25a2e7" d="M1866.5 440.5c49.83 70.643 89.49 146.977 119 229-162.17 1-324.5 1.333-487 1-1.03-37.195-20.2-55.528-57.5-55a182.8 182.8 0 0 0-47.5 8.5 2635 2635 0 0 0-129 46.5H61.5q44.902-121.82 118-228z" style="opacity:1"/><path fill="#f9f9f9" d="M1498.5 670.5a546 546 0 0 1-3.5 57c-18.97 146.1-40.8 291.77-65.5 437a14653 14653 0 0 0-27 157c-1.87 6.87-3.2 13.87-4 21-7.07 40.11-14.91 80.11-23.5 120-5.81 21.62-15.81 40.95-30 58-16.46 14.46-35.62 19.62-57.5 15.5-19.94-3.64-38.6-10.64-56-21a69782 69782 0 0 1-256-172.5 842 842 0 0 0-33-22 1596 1596 0 0 1-41-28.5c-12.79-9.45-22.623-21.28-29.5-35.5-5.667-15.68-3.667-30.35 6-44a253 253 0 0 1 13-17 1253 1253 0 0 0 29.5-30c65.797-61.3 131.46-122.8 197-184.5 32.83-31.5 65-63.667 96.5-96.5a110 110 0 0 0 12-16c.9-18.839-7.93-25.672-26.5-20.5a431 431 0 0 0-34 20 27361 27361 0 0 0-403 270 358 358 0 0 1-50 26.5q-40.876 15.555-84 7.5a2181 2181 0 0 0-37-7.5 1812 1812 0 0 1-174-54.5c-12.445-4.8-21.945-12.96-28.5-24.5q-6.405-16.155 4-30c10.644-11.23 22.811-20.4 36.5-27.5a65310 65310 0 0 1 628-272q103.635-42.83 207-85.5a2635 2635 0 0 1 129-46.5 182.8 182.8 0 0 1 47.5-8.5c37.3-.528 56.47 17.805 57.5 55" style="opacity:1"/><path fill="#25a2e1" d="M1985.5 669.5c34.91 94.306 55.58 191.64 62 292v124c-1.94 25.6-4.6 51.27-8 77-203.12 2-406.46 2.66-610 2 24.7-145.23 46.53-290.9 65.5-437a546 546 0 0 0 3.5-57c162.5.333 324.83 0 487-1M61.5 670.5h1203q-103.365 42.67-207 85.5a65310 65310 0 0 0-628 272c-13.689 7.1-25.856 16.27-36.5 27.5q-10.405 13.845-4 30c6.555 11.54 16.055 19.7 28.5 24.5a1812 1812 0 0 0 174 54.5c-194.542-.66-388.876 0-583 2a1587 1587 0 0 1-9-97v-91q7.71-158.545 62-308" style="opacity:1"/><path fill="#26a2e1" d="M920.5 1165.5c-69.165-1-138.498-1.33-208-1a358 358 0 0 0 50-26.5 27361 27361 0 0 1 403-270c11-7.171 22.34-13.838 34-20 18.57-5.172 27.4 1.661 26.5 20.5a110 110 0 0 1-12 16c-31.5 32.833-63.67 65-96.5 96.5-65.54 61.7-131.203 123.2-197 184.5" style="opacity:1"/><path fill="#1fa2e1" d="M591.5 1164.5a2181 2181 0 0 1 37 7.5q43.124 8.055 84-7.5c69.502-.33 138.835 0 208 1a1253 1253 0 0 1-29.5 30 253 253 0 0 0-13 17c-9.667 13.65-11.667 28.32-6 44 6.877 14.22 16.71 26.05 29.5 35.5a1596 1596 0 0 0 41 28.5c-299.667.67-599.333 1.33-899 2q-23.62-76.485-35-156c194.124-2 388.458-2.66 583-2M2039.5 1162.5c-7.12 54.13-18.79 107.13-35 159h-602c8.72-52.41 17.72-104.74 27-157 203.54.66 406.88 0 610-2" style="opacity:1"/><path fill="#1fa2da" d="M942.5 1320.5a842 842 0 0 1 33 22c-308.736.33-617.403 0-926-1a133 133 0 0 1-6-19c299.667-.67 599.333-1.33 899-2M1402.5 1321.5h602a186 186 0 0 1-6 21h-600c.8-7.13 2.13-14.13 4-21" style="opacity:1"/><path fill="#1f9cda" d="M49.5 1341.5c308.597 1 617.264 1.33 926 1 85.18 57.67 170.51 115.17 256 172.5 17.4 10.36 36.06 17.36 56 21 21.88 4.12 41.04-1.04 57.5-15.5 14.19-17.05 24.19-36.38 30-58 8.59-39.89 16.43-79.89 23.5-120h600c-66.49 198.57-181.82 362.4-346 491.5a1150 1150 0 0 1-64 45.5q-564-1.995-1128 0-261.262-173.04-383.5-462a939 939 0 0 1-27.5-76" style="opacity:1"/><path fill="#1f9cd4" d="M1588.5 1879.5c-152.71 99.9-320.38 155.9-503 168h-123c-175.214-11.57-337.214-63.74-486-156.5a199 199 0 0 1-16-11.5q564-1.995 1128 0" style="opacity:1"/></svg>

<?xml version="1.0" encoding="UTF-8"?>
<!DOCTYPE svg PUBLIC "-//W3C//DTD SVG 1.1//EN" "http://www.w3.org/Graphics/SVG/1.1/DTD/svg11.dtd">
<svg xmlns="http://www.w3.org/2000/svg" version="1.1" width="2048px" height="2048px" style="shape-rendering:geometricPrecision; text-rendering:geometricPrecision; image-rendering:optimizeQuality; fill-rule:evenodd; clip-rule:evenodd" xmlns:xlink="http://www.w3.org/1999/xlink">
<g><path style="opacity:1" fill="#25a8ec" d="M 978.5,-0.5 C 1008.83,-0.5 1039.17,-0.5 1069.5,-0.5C 1218.19,6.50724 1358.86,43.8406 1491.5,111.5C 1179.83,112.833 868.167,112.833 556.5,111.5C 689.226,44.1451 829.893,6.81177 978.5,-0.5 Z"/></g>
<g><path style="opacity:1" fill="#25a8e7" d="M 556.5,111.5 C 868.167,112.833 1179.83,112.833 1491.5,111.5C 1643.48,190.126 1768.48,299.793 1866.5,440.5C 1304.29,441.167 741.961,441.834 179.5,442.5C 278.184,301.131 403.851,190.798 556.5,111.5 Z"/></g>
<g><path style="opacity:1" fill="#25a2e7" d="M 1866.5,440.5 C 1916.33,511.143 1955.99,587.477 1985.5,669.5C 1823.33,670.5 1661,670.833 1498.5,670.5C 1497.47,633.305 1478.3,614.972 1441,615.5C 1424.8,616.232 1408.97,619.066 1393.5,624C 1350.06,638.394 1307.06,653.894 1264.5,670.5C 863.5,670.5 462.5,670.5 61.5,670.5C 91.4352,589.287 130.768,513.287 179.5,442.5C 741.961,441.834 1304.29,441.167 1866.5,440.5 Z"/></g>
<g><path style="opacity:1" fill="#f9f9f9" d="M 1498.5,670.5 C 1498.33,689.555 1497.16,708.555 1495,727.5C 1476.03,873.6 1454.2,1019.27 1429.5,1164.5C 1420.22,1216.76 1411.22,1269.09 1402.5,1321.5C 1400.63,1328.37 1399.3,1335.37 1398.5,1342.5C 1391.43,1382.61 1383.59,1422.61 1375,1462.5C 1369.19,1484.12 1359.19,1503.45 1345,1520.5C 1328.54,1534.96 1309.38,1540.12 1287.5,1536C 1267.56,1532.36 1248.9,1525.36 1231.5,1515C 1146.01,1457.67 1060.68,1400.17 975.5,1342.5C 964.709,1334.93 953.709,1327.6 942.5,1320.5C 928.737,1311.25 915.07,1301.75 901.5,1292C 888.71,1282.55 878.877,1270.72 872,1256.5C 866.333,1240.82 868.333,1226.15 878,1212.5C 882.091,1206.65 886.424,1200.99 891,1195.5C 901.036,1185.63 910.869,1175.63 920.5,1165.5C 986.297,1104.2 1051.96,1042.7 1117.5,981C 1150.33,949.5 1182.5,917.333 1214,884.5C 1218.49,879.524 1222.49,874.191 1226,868.5C 1226.9,849.661 1218.07,842.828 1199.5,848C 1187.84,854.162 1176.5,860.829 1165.5,868C 1030.35,956.824 896.016,1046.82 762.5,1138C 746.501,1148.17 729.834,1157 712.5,1164.5C 685.249,1174.87 657.249,1177.37 628.5,1172C 616.172,1169.39 603.839,1166.89 591.5,1164.5C 532.695,1149.29 474.695,1131.12 417.5,1110C 405.055,1105.2 395.555,1097.04 389,1085.5C 384.73,1074.73 386.063,1064.73 393,1055.5C 403.644,1044.27 415.811,1035.1 429.5,1028C 638.367,936.233 847.7,845.566 1057.5,756C 1126.59,727.447 1195.59,698.947 1264.5,670.5C 1307.06,653.894 1350.06,638.394 1393.5,624C 1408.97,619.066 1424.8,616.232 1441,615.5C 1478.3,614.972 1497.47,633.305 1498.5,670.5 Z"/></g>
<g><path style="opacity:1" fill="#25a2e1" d="M 1985.5,669.5 C 2020.41,763.806 2041.08,861.14 2047.5,961.5C 2047.5,1002.83 2047.5,1044.17 2047.5,1085.5C 2045.56,1111.1 2042.9,1136.77 2039.5,1162.5C 1836.38,1164.5 1633.04,1165.16 1429.5,1164.5C 1454.2,1019.27 1476.03,873.6 1495,727.5C 1497.16,708.555 1498.33,689.555 1498.5,670.5C 1661,670.833 1823.33,670.5 1985.5,669.5 Z"/></g>
<g><path style="opacity:1" fill="#25a2e1" d="M 61.5,670.5 C 462.5,670.5 863.5,670.5 1264.5,670.5C 1195.59,698.947 1126.59,727.447 1057.5,756C 847.7,845.566 638.367,936.233 429.5,1028C 415.811,1035.1 403.644,1044.27 393,1055.5C 386.063,1064.73 384.73,1074.73 389,1085.5C 395.555,1097.04 405.055,1105.2 417.5,1110C 474.695,1131.12 532.695,1149.29 591.5,1164.5C 396.958,1163.84 202.624,1164.5 8.5,1166.5C 4.49342,1134.11 1.49342,1101.78 -0.5,1069.5C -0.5,1039.17 -0.5,1008.83 -0.5,978.5C 4.63946,872.803 25.3061,770.137 61.5,670.5 Z"/></g>
<g><path style="opacity:1" fill="#26a2e1" d="M 920.5,1165.5 C 851.335,1164.5 782.002,1164.17 712.5,1164.5C 729.834,1157 746.501,1148.17 762.5,1138C 896.016,1046.82 1030.35,956.824 1165.5,868C 1176.5,860.829 1187.84,854.162 1199.5,848C 1218.07,842.828 1226.9,849.661 1226,868.5C 1222.49,874.191 1218.49,879.524 1214,884.5C 1182.5,917.333 1150.33,949.5 1117.5,981C 1051.96,1042.7 986.297,1104.2 920.5,1165.5 Z"/></g>
<g><path style="opacity:1" fill="#1fa2e1" d="M 591.5,1164.5 C 603.839,1166.89 616.172,1169.39 628.5,1172C 657.249,1177.37 685.249,1174.87 712.5,1164.5C 782.002,1164.17 851.335,1164.5 920.5,1165.5C 910.869,1175.63 901.036,1185.63 891,1195.5C 886.424,1200.99 882.091,1206.65 878,1212.5C 868.333,1226.15 866.333,1240.82 872,1256.5C 878.877,1270.72 888.71,1282.55 901.5,1292C 915.07,1301.75 928.737,1311.25 942.5,1320.5C 642.833,1321.17 343.167,1321.83 43.5,1322.5C 27.7535,1271.51 16.0869,1219.51 8.5,1166.5C 202.624,1164.5 396.958,1163.84 591.5,1164.5 Z"/></g>
<g><path style="opacity:1" fill="#1fa2e1" d="M 2039.5,1162.5 C 2032.38,1216.63 2020.71,1269.63 2004.5,1321.5C 1803.83,1321.5 1603.17,1321.5 1402.5,1321.5C 1411.22,1269.09 1420.22,1216.76 1429.5,1164.5C 1633.04,1165.16 1836.38,1164.5 2039.5,1162.5 Z"/></g>
<g><path style="opacity:1" fill="#1fa2da" d="M 942.5,1320.5 C 953.709,1327.6 964.709,1334.93 975.5,1342.5C 666.764,1342.83 358.097,1342.5 49.5,1341.5C 47.0541,1335.41 45.0541,1329.07 43.5,1322.5C 343.167,1321.83 642.833,1321.17 942.5,1320.5 Z"/></g>
<g><path style="opacity:1" fill="#1fa2da" d="M 1402.5,1321.5 C 1603.17,1321.5 1803.83,1321.5 2004.5,1321.5C 2002.91,1328.62 2000.91,1335.62 1998.5,1342.5C 1798.5,1342.5 1598.5,1342.5 1398.5,1342.5C 1399.3,1335.37 1400.63,1328.37 1402.5,1321.5 Z"/></g>
<g><path style="opacity:1" fill="#1f9cda" d="M 49.5,1341.5 C 358.097,1342.5 666.764,1342.83 975.5,1342.5C 1060.68,1400.17 1146.01,1457.67 1231.5,1515C 1248.9,1525.36 1267.56,1532.36 1287.5,1536C 1309.38,1540.12 1328.54,1534.96 1345,1520.5C 1359.19,1503.45 1369.19,1484.12 1375,1462.5C 1383.59,1422.61 1391.43,1382.61 1398.5,1342.5C 1598.5,1342.5 1798.5,1342.5 1998.5,1342.5C 1932.01,1541.07 1816.68,1704.9 1652.5,1834C 1631.66,1849.91 1610.33,1865.08 1588.5,1879.5C 1212.5,1878.17 836.5,1878.17 460.5,1879.5C 286.325,1764.14 158.492,1610.14 77,1417.5C 66.7396,1392.55 57.5729,1367.22 49.5,1341.5 Z"/></g>
<g><path style="opacity:1" fill="#1f9cd4" d="M 1588.5,1879.5 C 1435.79,1979.4 1268.12,2035.4 1085.5,2047.5C 1044.5,2047.5 1003.5,2047.5 962.5,2047.5C 787.286,2035.93 625.286,1983.76 476.5,1891C 470.923,1887.39 465.59,1883.56 460.5,1879.5C 836.5,1878.17 1212.5,1878.17 1588.5,1879.5 Z"/></g>
</svg>
